X:1
T:Mickey Rattley
M:4/4
R:Reel
K:G
|:A|BedB A2BA|GBAG EAGE|DB, (3B,B,B, DEGA|BG (3GFG Ac (3cdc|
BedB A2BA|GBAG EAGE|DB, (3B,B,B, DEGA|BGAB G3:||
|:B|dedB cBAF|G2BG AGEG|DG (3GFG dGBG|cBAG EAAB|
cBce dBAG|edef gdBG|DG (3GAG DGBe|dBAB G3:||
